www/assets/icons/emoji_food_beverage.svg

<svg xmlns="http://www.w3.org/2000/svg" width="24" height="24" viewBox="0 0 24 24" fill='currentColor'><path d="M19 3H8v2.4l1.81 1.45c.12.09.19.24.19.39v4.26c0 .28-.22.5-.5.5h-4c-.28 0-.5-.22-.5-.5V7.24c0-.15.07-.3.19-.39L7 5.4V3H3v10c0 2.21 1.79 4 4 4h6c2.21 0 4-1.79 4-4v-3h2a2 2 0 0 0 2-2V5c0-1.11-.89-2-2-2m0 5h-2V5h2zm0 11H3v2h16z"/></svg>

<svg width="24" height="24" viewBox="0 0 24 24" xmlns="http://www.w3.org/2000/svg" fill='currentColor'><path d="M19 3H8V5.4L9.81 6.85C9.93 6.94 10 7.09 10 7.24V11.5C10 11.78 9.78 12 9.5 12H5.5C5.22 12 5 11.78 5 11.5V7.24C5 7.09 5.07 6.94 5.19 6.85L7 5.4V3H3V13C3 15.21 4.79 17 7 17H13C15.21 17 17 15.21 17 13V10H19C20.11 10 21 9.1 21 8V5C21 3.89 20.11 3 19 3ZM19 8H17V5H19V8Z"/><path d="M19 19H3V21H19V19Z"/></svg>
